!!!OTL: Der Jaeger im Tannenholz Ein Jaeger wollte jagen,
!!!ARE: Europa, Mitteleuropa, Deutschland (BRD), Rheinland - Pfalz, Unterwesterwald,
!!    Eitelborn
!!!YOR: 7, S. 181
!!    1927 aufgezeichnet
!!!SCT: Q0151D
!!!YEM: Copyright 1995, estate of Helmut Schaffrath.
**kern
*ICvox
*Ivox
*M4/4
*k[f#]
*G:
{4d
=1
4.g
8d
4d
4g
=2
4e
4d
4r}
{4g
=3
4.a
8g
4f#
4e
=4
4d
4b
4g}
{4d
=5
4.g
8d
4d
4g
=6
4e
4d
4r}
{4g
=7
4.a
8g
4f#
4e
=8
4d
4b
4g}
{8g
8a
=9
4b
8b
8b
4b
4b
=10
4b
4dd
4b}
{8b
8dd
=11
4cc
4cc
4a
4dd
=12
2.b}
{8g
8a
=13
4b
8b
8b
4b
4b
=14
4b
4dd
4b}
{8b
8dd
=15
4cc
4cc
4a
4dd
=16
2.b}
==
!!!AGN: Ballade, abgewiesener Freier, Abschied
!!!ONB: ESAC (Essen Associative Code) Database: BALLADE
!!!AMT: simple quadruple
!!!AIN: vox
!!!EED: Helmut Schaffrath
!!!EEV: 1.0
*-
